src/assets/logo-tweaks/bisexual.svg

<svg width="26" height="26" viewBox="0 0 26 26" fill="none" xmlns="http://www.w3.org/2000/svg">
<g clip-path="url(#clip0)">
<rect width="26" height="26" fill="#7D459A"/>
<rect x="-1.25" y="20.625" width="31.3125" height="7.3125" fill="#182DB7"/>
<path fill-rule="evenodd" clip-rule="evenodd" d="M-3.5 10.1847H26.5V21.1875H-3.5V10.1847Z" fill="#182DB7"/>
<path fill-rule="evenodd" clip-rule="evenodd" d="M-3.5 -0.81818H26.5V10.1847H-3.5V-0.81818Z" fill="#CD0D80"/>
<path fill-rule="evenodd" clip-rule="evenodd" d="M-3.5 7.18389H26.5V13.1854H-3.5V7.18389Z" fill="#7D459A"/>
</g>
<defs>
<clipPath id="clip0">
<rect width="26" height="26" fill="white"/>
</clipPath>
</defs>
</svg>

<svg fill="none" xmlns="http://www.w3.org/2000/svg" viewBox="0 0 26 26">
  <g clip-path="url(#bisexual__clip0)">
    <path fill="#182DB7" d="M-1.25 20.625h31.313v7.313H-1.25z"/>
    <path fill-rule="evenodd" clip-rule="evenodd" d="M-3.5 10.185h30v11.002h-30V10.185z" fill="#182DB7"/>
    <path fill-rule="evenodd" clip-rule="evenodd" d="M-3.5-.818h30v11.003h-30V-.818z" fill="#CD0D80"/>
    <path fill-rule="evenodd" clip-rule="evenodd" d="M-3.5 7.184h30v6.001h-30V7.184z" fill="#7D459A"/>
  </g>
  <defs>
    <clipPath id="bisexual__clip0">
      <path fill="#fff" d="M0 0h26v26H0z"/>
    </clipPath>
  </defs>
</svg>
